X: 3
T: No_12_Song_in_Honor_of_a_Successful_Warrior.krn
N: Derived from No_12_Song_in_Honor_of_a_Successful_Warrior.krn
%%abc-version 2.0
%%abcx-abcm2ps-target-version 5.9.1 (29 Sep 2008)
%%abc-creator hum2abc beta
%%abcx-conversion-date 2019/03/15 08:27:55
%%humdrum-veritas 568594739
%%humdrum-veritas-data 2637739230
%%linebreak <none>
%%barnumbers 0
L: 1/16
M: 2/4
K: A clef=bass
[K:clef=bass][M:2/4]z4z3 A, | 
(E4B,)B,3 | 
[M:3/4]B,6B,2 B,2 z B, | 
[M:2/4](E4B,2)CB, | 
[M:3/4](B,4(3B,2)C2B,2A,4 | 
E,E,3E,4z4 | 
[M:2/4]A,3F, E,E,3 | 
E,4z4 | 
E,2E,2 E,2E,2 | 
E,2E, zz4 | 
EB,3 B,2EC | 
[M:3/4]C3/B,/B,2 B,2 (3ECCB,4 | 
E,3/E,/E,2 E,3/E,/E,2 E,2 z2 | 
[M:2/4]A,4F,E,E,2 | 
F,E,E,E, E,2 z2 | 
[M:3/4]E,3E, E,2(E,^D,) E,2(E,D,) |]  



